Reference_Spectra/ISSA_17_Jan_2025_Yan_Lu.ti3
CTI3   

DESCRIPTOR "ISSA Skin Color Database"
ORIGINATOR "Yan Lu, ISSA"
CREATED "Fri Jan 17 00:00:00 2025"
KEYWORD "DEVICE_CLASS"
DEVICE_CLASS "INPUT"
KEYWORD "COLOR_REP"
COLOR_REP "RGB_XYZ"
KEYWORD "SPECTRAL_BANDS"
SPECTRAL_BANDS "43"
KEYWORD "SPECTRAL_START_NM"
SPECTRAL_START_NM "360.000000"
KEYWORD "SPECTRAL_END_NM"
SPECTRAL_END_NM "780.000000"

KEYWORD "SPEC_360"
KEYWORD "SPEC_370"
KEYWORD "SPEC_380"
KEYWORD "SPEC_390"
KEYWORD "SPEC_400"
KEYWORD "SPEC_410"
KEYWORD "SPEC_420"
KEYWORD "SPEC_430"
KEYWORD "SPEC_440"
KEYWORD "SPEC_450"
KEYWORD "SPEC_460"
KEYWORD "SPEC_470"
KEYWORD "SPEC_480"
KEYWORD "SPEC_490"
KEYWORD "SPEC_500"
KEYWORD "SPEC_510"
KEYWORD "SPEC_520"
KEYWORD "SPEC_530"
KEYWORD "SPEC_540"
KEYWORD "SPEC_550"
KEYWORD "SPEC_560"
KEYWORD "SPEC_570"
KEYWORD "SPEC_580"
KEYWORD "SPEC_590"
KEYWORD "SPEC_600"
KEYWORD "SPEC_610"
KEYWORD "SPEC_620"
KEYWORD "SPEC_630"
KEYWORD "SPEC_640"
KEYWORD "SPEC_650"
KEYWORD "SPEC_660"
KEYWORD "SPEC_670"
KEYWORD "SPEC_680"
KEYWORD "SPEC_690"
KEYWORD "SPEC_700"
KEYWORD "SPEC_710"
KEYWORD "SPEC_720"
KEYWORD "SPEC_730"
KEYWORD "SPEC_740"
KEYWORD "SPEC_750"
KEYWORD "SPEC_760"
KEYWORD "SPEC_770"
KEYWORD "SPEC_780"

NUMBER_OF_FIELDS 51
BEGIN_DATA_FORMAT
SAMPLE_ID SAMPLE_TYPE RGB_R RGB_G RGB_B XYZ_X XYZ_Y XYZ_Z SPEC_360 SPEC_370 SPEC_380 SPEC_390 SPEC_400 SPEC_410 SPEC_420 SPEC_430 SPEC_440 SPEC_450 SPEC_460 SPEC_470 SPEC_480 SPEC_490 SPEC_500 SPEC_510 SPEC_520 SPEC_530 SPEC_540 SPEC_550 SPEC_560 SPEC_570 SPEC_580 SPEC_590 SPEC_600 SPEC_610 SPEC_620 SPEC_630 SPEC_640 SPEC_650 SPEC_660 SPEC_670 SPEC_680 SPEC_690 SPEC_700 SPEC_710 SPEC_720 SPEC_730 SPEC_740 SPEC_750 SPEC_760 SPEC_770 SPEC_780
END_DATA_FORMAT

NUMBER_OF_SETS 15256
BEGIN_DATA
1 "CA-F" 0 0 0 35.3929 33.5536 23.9372 8.77 10.77 12.97 15.26 17.12 17.79 17.88 18.61 20.24 21.94 22.97 23.61 24.15 25.01 26.06 27.21 27.97 28.32 28.83 29.93 31.47 32.73 34.73 39.38 44.59 47.92 49.57 50.50 51.03 51.55 51.84 52.21 52.55 53.12 53.44 53.66 53.73 53.72 53.40 0 0 0 0
2 "CA-F" 0 0 0 34.1449 32.3996 22.3891 7.95 9.45 11.34 13.58 15.38 16.07 16.27 17.05 18.68 20.41 21.56 22.32 22.94 23.87 25.04 26.23 27.00 27.28 27.85 29.00 30.39 31.43 33.42 38.16 43.13 46.30 48.10 49.14 49.90 50.54 50.93 51.49 51.81 52.49 52.75 53.07 53.10 53.06 52.74 0 0 0 0
3 "CA-F" 0 0 0 30.9888 29.0638 19.7731 6.97 8.32 10.02 11.94 13.55 14.17 14.40 15.13 16.59 18.03 19.02 19.66 20.28 20.98 21.93 22.88 23.61 23.92 24.41 25.55 27.07 28.33 30.54 35.19 39.90 42.63 43.95 44.75 45.25 45.75 46.07 46.41 46.77 47.34 47.68 47.92 48.00 48.11 47.86 0 0 0 0
4 "CA-F" 0 0 0 33.8113 32.9727 26.1003 14.67 16.16 17.60 18.55 18.82 18.60 18.40 19.02 21.10 23.60 25.64 26.85 27.67 28.37 29.30 29.96 30.25 29.73 29.19 29.53 30.30 30.52 31.83 36.40 41.54 44.74 46.37 47.22 47.75 48.20 48.47 48.69 49.07 49.40 49.63 49.66 49.64 49.54 49.16 0 0 0 0
5 "CA-F" 0 0 0 31.7986 29.4886 20.8183 7.66 8.90 10.56 12.53 14.22 14.89 15.19 15.91 17.42 18.95 20.07 20.76 21.38 22.17 23.17 24.13 24.62 24.49 24.63 25.54 26.85 27.56 29.07 34.04 40.20 44.45 46.82 48.21 49.16 49.85 50.40 51.02 51.71 52.57 53.19 53.67 53.88 54.01 53.72 0 0 0 0
6 "CA-F" 0 0 0 33.3994 33.1179 24.9679 10.11 11.44 12.81 13.85 14.37 14.56 14.89 15.60 18.07 22.10 25.61 27.67 28.94 30.04 30.91 31.41 31.14 30.11 29.21 29.34 30.03 30.33 31.81 36.29 41.15 44.30 45.99 46.94 47.61 48.22 48.64 49.05 49.39 49.96 50.23 50.52 50.54 50.49 50.12 0 0 0 0
7 "CA-F" 0 0 0 38.1196 38.2409 32.5021 19.21 21.32 22.57 22.55 21.51 20.26 20.16 21.28 25.11 29.71 33.02 34.82 35.87 36.85 37.80 38.34 37.53 35.54 34.17 34.46 35.13 34.29 35.10 40.59 46.36 49.41 50.75 51.40 51.72 51.97 51.97 51.92 51.94 52.16 52.22 52.07 51.72 51.27 50.46 0 0 0 0
8 "CA-F" 0 0 0 27.3026 26.0654 17.1853 7.64 8.40 9.15 9.60 9.87 10.12 10.51 11.24 12.84 14.93 17.00 18.54 19.91 21.11 22.19 23.12 23.17 22.30 21.80 22.57 23.69 23.65 24.85 29.79 35.07 38.20 39.89 41.09 42.14 43.04 43.74 44.53 45.11 45.80 46.34 46.81 47.02 47.20 47.11 0 0 0 0
9 "CA-F" 0 0 0 33.9587 34.1027 26.1530 11.14 12.55 13.99 15.19 15.75 15.98 16.31 16.94 19.40 23.35 26.61 28.48 29.67 30.68 31.50 32.03 32.10 31.53 30.91 30.88 31.49 32.13 33.49 36.92 41.02 43.78 45.30 46.23 46.90 47.58 48.07 48.45 48.92 49.41 49.66 49.94 49.94 49.99 49.68 0 0 0 0
10 "CA-F" 0 0 0 28.2720 26.8045 19.3362 7.16 8.22 9.88 12.04 13.97 14.61 14.72 15.25 16.57 17.77 18.51 18.87 19.18 19.86 20.82 21.79 22.57 22.93 23.27 24.01 25.04 25.77 27.23 31.33 35.79 38.40 39.65 40.29 40.66 41.13 41.47 41.72 42.16 42.52 42.85 43.10 43.14 43.18 42.94 0 0 0 0
11 "CA-F" 0 0 0 29.7752 27.8816 21.1336 9.90 11.02 12.50 14.05 15.13 15.30 15.32 15.90 17.55 19.18 20.42 21.26 21.85 22.75 23.81 24.74 24.87 24.04 23.51 23.99 24.82 24.72 25.70 31.22 37.68 41.73 43.83 45.01 45.75 46.34 46.76 47.06 47.43 47.86 48.01 48.18 48.02 47.80 47.22 0 0 0 0
12 "CA-F" 0 0 0 30.1012 28.7786 20.9683 7.08 8.29 10.12 12.41 14.43 15.27 15.63 16.42 17.98 19.23 20.07 20.55 21.02 21.75 22.79 23.90 24.65 24.90 25.21 26.09 27.11 27.52 28.80 33.09 37.91 40.65 41.87 42.61 43.05 43.59 43.97 44.27 44.58 44.93 45.14 45.35 45.24 45.20 44.82 0 0 0 0
13 "CA-F" 0 0 0 31.2158 30.2354 25.4505 20.39 20.97 21.42 21.30 20.50 19.57 19.02 19.22 20.90 23.12 24.83 25.78 26.25 26.76 27.65 28.35 28.53 27.53 26.57 26.84 27.37 26.91 27.88 32.91 38.50 41.82 43.28 43.82 44.07 44.37 44.44 44.53 44.62 44.80 44.84 44.88 44.61 44.40 43.93 0 0 0 0
14 "CA-F" 0 0 0 29.4125 27.2472 20.5785 9.44 10.63 12.09 13.48 14.42 14.60 14.65 15.14 16.83 18.67 20.09 20.95 21.59 22.34 23.23 24.00 24.02 23.30 22.82 23.19 23.85 23.77 24.78 30.16 37.13 41.77 44.24 45.61 46.49 47.29 47.82 48.37 48.99 49.51 49.96 50.18 50.25 50.29 49.85 0 0 0 0
15 "CA-F" 0 0 0 30.7063 30.5334 23.4138 9.97 11.24 12.77 14.15 15.03 15.40 15.58 15.99 18.04 21.08 23.58 24.82 25.54 26.39 27.20 27.92 28.33 28.22 27.92 27.71 27.97 28.80 30.26 33.12 36.84 39.83 41.43 42.35 42.98 43.46 43.85 44.20 44.63 45.08 45.42 45.60 45.60 45.60 45.20 0 0 0 0
16 "CA-F" 0 0 0 35.7113 36.3767 29.8467 19.28 20.72 21.81 22.23 21.60 20.52 20.14 20.47 23.18 27.02 29.98 31.53 32.28 33.08 34.10 35.11 35.46 34.85 34.00 33.62 33.86 34.01 35.01 38.40 42.41 45.08 46.33 46.93 47.09 47.32 47.33 47.39 47.44 47.61 47.55 47.40 47.09 46.73 45.91 0 0 0 0
17 "CA-F" 0 0 0 26.3553 26.0426 19.5689 7.80 8.75 9.93 10.99 11.74 12.17 12.48 12.92 14.65 17.37 19.88 21.25 21.98 22.71 23.38 23.89 24.08 23.77 23.40 23.28 23.62 24.23 25.57 28.57 32.13 34.76 36.16 36.94 37.51 38.02 38.39 38.83 39.17 39.57 39.93 40.18 40.26 40.29 40.05 0 0 0 0
18 "CA-F" 0 0 0 31.6912 31.9774 25.5736 11.31 12.78 14.38 15.63 16.35 16.55 16.68 17.10 19.25 23.00 26.07 27.60 28.27 28.94 29.65 30.22 30.48 30.13 29.53 29.16 29.40 30.04 31.34 34.23 37.80 40.47 41.75 42.40 42.78 43.22 43.41 43.74 43.95 44.26 44.44 44.58 44.52 44.44 44.11 0 0 0 0
19 "CA-M" 0 0 0 27.0530 23.8602 18.9978 15.94 16.16 16.13 15.41 14.35 13.40 13.06 13.57 15.26 17.07 18.60 19.66 20.45 21.32 22.31 22.72 21.62 19.53 18.19 18.42 19.06 18.17 18.64 25.33 34.72 41.23 44.72 46.51 47.62 48.44 48.90 49.38 49.76 50.36 50.66 50.86 50.62 50.36 49.60 0 0 0 0
20 "CA-M" 0 0 0 33.4242 30.7022 23.6320 18.59 18.85 18.96 18.40 17.34 16.25 15.69 16.01 18.28 21.11 23.44 25.01 26.06 27.40 28.57 29.02 27.75 25.89 24.97 24.84 25.22 25.28 26.86 33.93 42.70 48.61 51.90 53.60 54.47 55.12 55.53 56.11 56.62 57.22 57.43 57.63 57.53 57.32 56.71 0 0 0 0
21 "CA-M" 0 0 0 35.4759 34.2238 28.9816 19.80 20.86 21.76 22.03 21.62 20.86 20.20 20.76 23.22 26.25 28.61 30.01 30.89 31.90 32.92 33.35 32.58 30.98 29.81 29.71 30.15 29.91 30.76 36.06 43.01 47.83 50.35 51.73 52.48 53.15 53.45 53.88 54.28 54.71 55.06 55.13 55.01 54.83 54.33 0 0 0 0
22 "CA-M" 0 0 0 35.9846 33.1566 28.1929 24.78 24.72 24.52 23.71 22.40 21.15 20.30 20.54 22.62 25.48 27.74 29.16 29.83 30.76 31.62 31.80 30.58 28.48 27.15 27.27 27.79 27.15 28.16 35.60 45.40 51.77 54.78 56.14 56.86 57.37 57.56 57.93 58.17 58.51 58.63 58.58 58.22 57.94 57.14 0 0 0 0
23 "CA-M" 0 0 0 27.8091 24.2914 19.8891 16.98 16.93 16.75 16.03 15.04 14.18 13.77 13.92 15.46 17.69 19.73 21.03 21.89 22.69 23.29 23.24 21.92 19.83 18.48 18.39 18.82 18.24 18.73 24.71 34.41 42.45 47.01 49.36 50.75 51.75 52.35 53.07 53.85 54.59 55.06 55.29 55.18 54.97 54.22 0 0 0 0
24 "CA-M" 0 0 0 32.7213 31.9717 28.1537 16.98 18.12 18.96 19.04 18.40 17.50 16.97 17.15 19.54 24.66 29.55 32.28 33.26 33.79 33.86 33.33 31.85 29.52 27.48 26.69 26.85 26.85 28.04 32.65 39.09 44.26 46.91 48.14 48.84 49.30 49.57 49.85 50.46 50.92 51.30 51.36 51.22 51.08 50.41 0 0 0 0
25 "CA-M" 0 0 0 35.8436 35.5800 29.7084 18.11 19.87 20.68 20.52 19.52 18.59 18.52 19.31 22.44 26.76 30.22 32.25 33.24 34.27 35.35 35.80 34.90 32.93 31.48 31.52 31.95 31.32 32.04 37.23 43.46 47.50 49.48 50.41 50.86 51.23 51.38 51.56 51.75 51.99 51.95 51.93 51.48 51.03 50.16 0 0 0 0
26 "CA-M" 0 0 0 34.8933 34.9481 31.0802 19.48 20.85 21.99 22.50 22.33 21.88 21.69 21.98 24.25 28.10 31.19 32.84 33.53 34.14 34.56 34.57 34.04 32.86 31.81 31.51 31.79 31.87 32.76 36.49 41.15 44.34 45.85 46.63 46.98 47.23 47.43 47.59 47.80 48.01 48.17 48.21 48.12 47.96 47.50 0 0 0 0
27 "CA-M" 0 0 0 36.7225 36.4000 32.6915 21.15 22.55 23.65 23.86 23.26 22.51 22.07 22.37 25.02 29.50 33.07 35.03 35.89 36.60 37.12 37.07 35.99 33.94 32.27 32.01 32.33 31.88 32.82 37.87 44.02 48.00 49.74 50.53 50.92 51.22 51.30 51.52 51.63 51.88 51.84 51.88 51.60 51.43 50.81 0 0 0 0
28 "CA-M" 0 0 0 23.9715 22.7369 16.8405 9.29 10.39 11.38 11.96 12.15 12.05 12.05 12.55 13.83 15.10 16.17 17.00 17.77 18.55 19.64 20.57 20.66 19.93 19.40 19.75 20.41 20.35 21.03 25.10 29.97 33.03 34.84 36.09 36.94 37.66 38.17 38.84 39.51 40.12 40.64 41.12 41.39 41.55 41.47 0 0 0 0
29 "CA-M" 0 0 0 27.8792 25.8876 18.3669 10.57 11.60 12.60 13.07 12.96 12.48 12.14 12.66 14.42 16.32 17.91 19.16 20.17 21.35 22.78 23.82 23.43 22.11 21.27 21.37 21.97 22.07 23.37 29.13 35.73 39.95 42.62 44.22 45.23 46.03 46.65 47.48 48.27 49.09 49.60 50.06 50.21 50.31 50.01 0 0 0 0
30 "CA-M" 0 0 0 26.7014 25.1589 18.9891 9.01 10.15 11.39 12.31 12.77 12.82 12.89 13.70 15.43 17.07 18.36 19.50 20.34 21.38 22.59 23.55 23.27 21.91 21.06 21.50 22.16 21.57 22.20 27.44 33.97 37.87 39.80 40.89 41.62 42.28 42.64 43.07 43.46 43.87 44.13 44.36 44.30 44.23 43.82 0 0 0 0
31 "CA-M" 0 0 0 30.2165 28.6834 21.9490 11.04 12.28 13.62 14.54 15.02 15.25 15.28 15.87 17.57 19.75 21.50 22.70 23.54 24.36 25.24 25.98 25.85 25.07 24.58 24.95 25.59 25.37 26.48 31.87 38.12 41.92 43.84 44.88 45.46 46.09 46.39 46.78 47.09 47.53 47.70 47.78 47.75 47.68 47.15 0 0 0 0
32 "CA-M" 0 0 0 23.5359 22.0737 17.3785 9.55 10.49 11.48 12.13 12.35 12.25 12.21 12.78 14.19 15.62 16.83 17.75 18.47 19.25 20.16 20.78 20.44 19.27 18.49 18.72 19.24 18.84 19.33 23.76 29.46 33.16 35.13 36.29 36.98 37.61 38.03 38.46 38.90 39.35 39.71 40.01 40.13 40.21 40.05 0 0 0 0
33 "CA-M" 0 0 0 27.5101 26.5351 17.5558 7.44 8.20 9.09 9.80 10.28 10.53 10.80 11.33 12.91 15.28 17.57 19.13 20.26 21.36 22.43 23.31 23.70 23.30 22.89 23.23 23.98 24.48 25.90 29.89 34.61 37.88 39.75 41.03 41.91 42.85 43.53 44.23 44.82 45.54 45.96 46.35 46.41 46.55 46.26 0 0 0 0
34 "CA-M" 0 0 0 27.3088 26.7495 20.4382 11.23 12.49 13.36 13.61 13.24 12.95 13.05 13.78 15.84 18.22 20.23 21.70 22.77 23.71 24.94 25.98 25.81 24.33 23.14 23.56 24.28 23.60 24.19 28.80 33.91 37.05 38.69 39.65 40.21 40.76 40.96 41.27 41.51 41.87 41.89 41.95 41.72 41.46 40.82 0 0 0 0
35 "CA-M" 0 0 0 26.2394 25.5343 17.2592 8.65 9.22 9.90 10.43 10.83 11.14 11.51 12.08 13.43 15.16 16.79 18.09 19.16 20.23 21.33 22.25 22.71 22.54 22.35 22.94 23.82 24.10 25.24 28.79 32.67 35.31 36.83 37.97 38.84 39.67 40.27 41.02 41.53 42.18 42.60 43.01 43.16 43.34 43.27 0 0 0 0
36 "CA-M" 0 0 0 31.6756 31.8181 24.7867 10.21 11.59 13.14 14.40 15.15 15.48 15.75 16.29 18.55 22.12 25.12 26.83 27.94 28.82 29.70 30.34 30.41 29.74 28.96 28.74 29.15 29.57 30.71 33.97 38.02 40.98 42.60 43.47 44.07 44.53 44.86 45.21 45.59 45.99 46.20 46.38 46.27 46.26 45.88 0 0 0 0
37 "CA-M" 0 0 0 31.6154 30.3539 23.5073 15.94 17.33 18.43 18.70 18.12 17.09 16.58 17.25 19.35 21.31 22.75 23.70 24.56 25.79 27.18 28.24 28.19 27.12 26.46 26.74 27.37 26.92 27.63 32.87 39.13 43.11 45.39 46.72 47.49 48.17 48.62 48.98 49.44 49.95 50.20 50.36 50.20 50.01 49.40 0 0 0 0
38 "CA-M" 0 0 0 30.0734 28.1943 21.7525 14.26 15.44 16.38 16.52 15.96 15.14 14.71 15.35 17.39 19.56 21.25 22.51 23.42 24.66 25.94 26.69 26.14 24.55 23.48 23.72 24.37 23.88 24.62 30.58 37.89 42.56 45.22 46.78 47.74 48.47 48.88 49.48 49.91 50.49 50.69 50.94 50.74 50.59 50.01 0 0 0 0
39 "CA-M" 0 0 0 29.0111 28.0650 20.7060 9.14 10.54 12.06 13.22 13.79 13.85 13.96 14.86 16.75 18.65 20.15 21.21 22.11 23.31 24.68 25.59 25.70 25.02 24.64 25.02 25.64 25.54 26.36 30.55 35.76 39.26 41.27 42.54 43.44 44.23 44.74 45.37 45.85 46.45 46.78 47.21 47.25 47.26 46.96 0 0 0 0
40 "CA-M" 0 0 0 5.2600 4.7182 4.0137 2.86 3.09 3.25 3.23 3.06 2.91 2.93 2.95 3.37 3.63 3.97 3.95 4.35 4.20 4.36 4.50 4.41 3.94 3.58 3.71 3.87 3.62 3.91 5.44 6.90 7.70 8.22 8.34 8.42 8.64 8.72 8.68 8.80 8.85 8.94 8.91 8.88 8.86 8.81 0 0 0 0
41 "CA-M" 0 0 0 25.3080 23.3998 17.8793 9.40 10.49 11.51 12.07 12.17 12.05 12.11 12.68 14.18 15.97 17.51 18.64 19.47 20.40 21.28 21.75 21.29 20.04 19.20 19.47 20.09 19.70 20.28 25.01 31.54 36.31 38.97 40.52 41.58 42.41 42.99 43.69 44.29 45.07 45.58 45.98 46.16 46.32 46.12 0 0 0 0
42 "CA-M" 0 0 0 30.0657 29.0467 21.1211 9.00 10.14 11.33 12.19 12.57 12.71 12.84 13.33 15.35 18.50 21.46 23.26 24.56 25.62 26.59 27.17 26.93 25.88 24.99 24.98 25.59 25.82 27.10 31.66 37.35 41.46 43.68 45.05 45.99 46.73 47.28 47.82 48.35 48.90 49.27 49.60 49.61 49.58 49.17 0 0 0 0
43 "CA-M" 0 0 0 26.2305 24.4466 18.9693 12.15 13.16 13.63 13.36 12.67 12.07 12.00 12.36 13.87 16.51 19.05 20.83 21.98 22.96 23.87 24.26 23.32 21.21 19.62 19.72 20.35 19.71 20.32 25.95 33.31 38.34 40.89 42.18 42.88 43.48 43.69 44.04 44.30 44.83 44.80 44.79 44.50 44.16 43.31 0 0 0 0
44 "CA-M" 0 0 0 27.5279 26.9976 18.9600 8.85 9.78 10.76 11.41 11.76 11.97 12.25 12.84 14.49 16.73 18.75 20.16 21.25 22.31 23.41 24.32 24.61 24.18 23.81 24.13 24.92 25.30 26.44 29.99 34.02 36.74 38.39 39.43 40.29 41.06 41.63 42.22 42.77 43.36 43.86 44.24 44.43 44.66 44.56 0 0 0 0
45 "CA-M" 0 0 0 33.9384 33.5665 27.1230 12.83 14.49 16.07 17.05 17.31 17.05 17.07 17.53 19.86 24.01 27.75 29.72 30.94 32.06 32.91 33.22 32.58 31.04 29.60 29.25 29.69 29.76 30.92 35.54 41.36 45.34 47.28 48.22 48.80 49.23 49.41 49.66 49.90 50.19 50.41 50.41 50.30 50.13 49.60 0 0 0 0
46 "CA-F" 0 0 0 35.1527 33.9573 26.7956 11.64 15.99 18.98 19.92 20.19 20.11 20.14 20.85 22.72 24.49 25.74 26.43 27.14 27.97 29.07 30.09 30.49 30.13 30.00 30.63 31.59 31.93 33.02 37.67 43.07 46.56 48.38 49.37 49.95 50.57 50.82 51.27 51.55 52.01 52.25 52.36 52.32 52.16 51.71 0 0 0 0
47 "CA-F" 0 0 0 32.8133 30.7364 24.9023 12.99 16.13 18.13 18.66 18.50 17.94 17.67 18.20 20.18 22.48 24.28 25.52 26.47 27.45 28.46 29.03 28.32 26.67 25.62 25.80 26.52 26.37 27.56 33.65 40.79 45.60 48.49 50.13 51.12 51.91 52.46 53.10 53.68 54.33 54.71 54.97 54.94 54.75 54.20 0 0 0 0
48 "CA-F" 0 0 0 37.5308 37.0304 30.7972 13.38 17.21 20.13 21.67 22.32 22.39 22.41 23.44 25.85 28.11 29.79 30.81 31.66 32.73 33.89 34.79 34.76 33.90 33.39 33.74 34.40 34.41 35.32 39.95 45.28 48.52 50.14 51.04 51.62 52.11 52.27 52.72 52.82 53.24 53.36 53.31 53.22 52.95 52.44 0 0 0 0
49 "CA-F" 0 0 0 26.5760 22.7436 18.5548 12.76 13.91 14.71 14.83 14.57 14.16 13.89 14.25 15.43 16.65 17.80 18.73 19.45 20.05 20.71 20.97 19.93 17.81 16.53 17.10 17.85 16.64 17.11 24.78 35.31 41.95 44.89 46.28 47.18 47.87 48.05 48.32 48.44 48.78 48.81 48.80 48.53 48.20 47.54 0 0 0 0
50 "CA-F" 0 0 0 34.5821 32.8102 26.4403 11.76 15.48 18.11 19.04 19.21 19.01 18.97 19.84 22.07 24.11 25.64 26.60 27.43 28.33 29.33 30.16 29.94 28.88 28.17 28.64 29.46 29.23 29.99 35.39 42.54 47.25 49.80 51.31 52.28 53.14 53.55 54.17 54.57 55.20 55.51 55.67 55.71 55.59 55.04 0 0 0 0
51 "CA-F" 0 0 0 32.6153 31.9635 25.0641 10.71 12.27 13.84 14.98 15.47 15.62 15.82 16.66 19.03 22.38 25.17 26.96 28.21 29.33 30.22 30.85 30.43 28.87 27.68 28.02 28.88 28.55 29.50 34.65 40.43 43.87 45.62 46.59 47.27 47.77 48.10 48.49 48.91 49.30 49.60 49.74 49.71 49.63 49.18 0 0 0 0
52 "CA-F" 0 0 0 33.6777 33.6252 27.4028 15.62 17.73 19.03 19.23 18.58 17.73 17.67 18.73 21.56 24.82 27.31 28.87 29.93 30.92 32.13 32.97 32.74 31.27 30.01 30.31 31.03 30.36 30.95 35.87 41.27 44.16 45.46 46.12 46.40 46.70 46.80 47.01 47.18 47.45 47.50 47.41 47.13 46.82 46.24 0 0 0 0
53 "CA-F" 0 0 0 29.1771 28.9104 22.6129 9.63 10.92 12.26 13.39 14.07 14.40 14.74 15.30 17.23 20.12 22.63 24.28 25.29 26.20 26.98 27.40 27.27 26.48 25.80 25.82 26.34 26.57 27.60 31.21 35.49 38.31 39.84 40.72 41.34 41.86 42.28 42.71 43.09 43.55 43.91 44.11 44.24 44.24 43.98 0 0 0 0
54 "CA-F" 0 0 0 32.8071 33.0495 27.7196 11.81 13.65 15.62 17.17 17.90 18.05 18.15 18.66 21.13 24.99 28.09 29.74 30.64 31.50 32.07 32.40 32.10 30.99 30.01 29.93 30.32 30.40 31.33 34.99 39.27 41.91 43.15 43.90 44.33 44.66 44.92 45.19 45.46 45.77 45.99 46.08 46.02 45.95 45.51 0 0 0 0
55 "CA-M" 0 0 0 29.3790 27.4918 21.4858 12.28 13.53 14.80 15.53 15.53 15.13 14.75 15.47 17.42 19.37 20.96 22.04 22.96 23.97 25.03 25.72 25.32 23.88 22.88 23.30 24.04 23.37 23.94 29.72 37.03 41.66 44.09 45.43 46.38 47.00 47.36 47.69 48.00 48.41 48.67 48.64 48.49 48.20 47.54 0 0 0 0
56 "CA-M" 0 0 0 16.7068 15.5471 12.4303 9.62 10.06 10.36 10.13 9.46 8.66 8.11 8.54 9.91 11.29 12.34 12.97 13.54 13.72 14.44 14.83 14.62 13.52 12.64 12.83 13.27 12.92 13.65 16.97 20.70 23.53 25.37 26.18 26.82 27.38 27.51 27.74 27.69 27.98 28.08 27.99 27.80 27.50 26.92 0 0 0 0
57 "CA-M" 0 0 0 29.6027 28.7238 20.6905 7.79 8.93 10.42 11.83 12.72 13.22 13.49 14.51 16.58 18.63 20.28 21.42 22.48 23.48 24.69 25.72 25.95 25.49 25.19 25.76 26.62 26.49 27.38 31.84 36.95 40.01 41.69 42.84 43.64 44.41 44.90 45.45 45.79 46.30 46.57 46.68 46.71 46.55 46.11 0 0 0 0
58 "CA-M" 0 0 0 32.3622 29.8694 23.1862 14.52 15.74 16.90 17.53 17.51 17.09 16.70 17.11 18.80 21.03 22.71 23.77 24.44 25.06 25.67 25.99 25.64 24.81 24.60 25.57 26.57 26.18 27.37 34.02 41.60 46.01 48.07 49.15 49.85 50.37 50.60 50.96 51.20 51.53 51.65 51.67 51.48 51.26 50.68 0 0 0 0
59 "CA-M" 0 0 0 25.6664 24.9495 20.7856 13.12 14.31 15.44 15.98 15.79 15.03 14.55 15.14 16.97 18.87 20.38 21.22 21.90 22.66 23.46 23.98 23.67 22.63 21.84 22.06 22.62 22.17 22.60 26.72 31.62 34.41 35.67 36.40 36.84 37.19 37.43 37.63 37.87 38.16 38.32 38.50 38.55 38.62 38.35 0 0 0 0
60 "CA-M" 0 0 0 27.9606 27.3007 19.7122 8.11 9.10 10.28 11.28 11.79 12.02 12.12 12.67 14.54 17.46 19.95 21.55 22.56 23.47 24.23 24.82 24.99 24.55 24.07 24.16 24.76 25.20 26.35 29.67 33.88 37.22 39.49 40.99 42.11 43.10 43.83 44.61 45.45 46.42 47.02 47.54 47.74 47.89 47.52 0 0 0 0
61 "CA-M" 0 0 0 30.7737 30.5365 24.7663 12.85 14.61 16.08 16.88 16.82 16.32 16.26 16.96 19.49 22.52 24.75 26.06 26.89 27.67 28.55 29.30 29.23 28.32 27.52 27.63 28.15 27.78 28.23 32.15 37.09 40.28 41.99 42.95 43.52 43.93 44.14 44.37 44.46 44.68 44.75 44.56 44.34 43.96 43.23 0 0 0 0
62 "CA-M" 0 0 0 20.3032 19.8867 13.7249 6.42 7.01 7.74 8.38 8.82 9.00 9.10 9.50 10.59 12.15 13.52 14.47 15.21 15.90 16.60 17.19 17.61 17.70 17.74 18.07 18.64 19.13 19.98 22.16 24.76 26.69 27.97 28.96 29.79 30.55 31.23 31.89 32.53 33.25 33.87 34.34 34.75 35.09 35.28 0 0 0 0
63 "CA-M" 0 0 0 35.6177 36.2089 29.5713 14.61 16.42 18.24 19.56 20.25 20.21 20.03 20.47 22.90 26.79 29.73 31.18 32.06 32.93 33.69 34.22 34.49 34.29 33.82 33.70 34.00 34.44 35.53 38.44 41.95 44.52 45.89 46.65 47.04 47.51 47.67 47.99 48.15 48.51 48.67 48.73 48.66 48.52 48.09 0 0 0 0
64 "CA-F" 0 0 0 38.5938 37.2384 29.0160 13.63 18.35 21.46 22.38 22.54 22.12 21.92 22.71 24.81 26.74 27.84 28.41 29.03 29.86 31.00 32.04 32.60 32.62 32.74 33.61 34.95 35.87 37.68 42.52 47.71 50.86 52.37 53.16 53.58 53.97 54.06 54.36 54.51 54.96 54.98 55.09 54.92 54.83 54.31 0 0 0 0
65 "CA-F" 0 0 0 29.9400 29.0682 23.1815 13.59 16.73 18.52 18.63 18.01 17.18 16.58 17.19 19.18 21.26 22.60 23.40 23.90 24.62 25.68 26.30 26.40 25.85 25.57 25.95 26.65 27.08 28.64 32.77 36.83 39.53 40.97 41.46 41.82 42.13 42.17 42.34 42.33 42.63 42.72 42.59 42.39 42.12 41.56 0 0 0 0
66 "CA-F" 0 0 0 36.6962 34.1544 25.9279 12.68 16.15 18.44 19.39 19.66 19.52 19.56 20.34 22.46 24.14 25.04 25.30 25.59 26.11 26.81 27.56 28.08 28.35 28.79 29.69 30.80 32.13 35.65 41.84 47.13 49.99 51.41 52.21 52.69 53.12 53.37 53.64 53.93 54.40 54.55 54.67 54.61 54.46 54.06 0 0 0 0
67 "CA-F" 0 0 0 25.5662 24.7486 19.4463 9.13 12.57 14.71 15.16 15.02 14.70 14.47 15.07 16.63 18.01 18.76 19.07 19.57 19.71 20.60 21.41 22.06 21.96 21.74 22.27 23.18 23.79 25.13 28.29 31.42 33.41 34.55 34.97 35.27 35.64 35.73 35.89 36.02 36.25 36.44 36.49 36.39 36.25 35.82 0 0 0 0
68 "CA-F" 0 0 0 34.4610 32.4374 25.6166 12.79 16.79 19.42 20.21 20.16 19.79 19.42 19.97 21.68 23.45 24.67 25.32 25.85 26.59 27.39 28.14 28.37 27.96 27.78 28.29 29.39 30.09 31.49 36.18 42.24 46.68 49.27 50.68 51.56 52.23 52.73 53.39 53.97 54.70 55.17 55.51 55.59 55.58 55.13 0 0 0 0
69 "CA-F" 0 0 0 33.0959 32.3668 27.0342 13.44 15.13 16.55 17.29 17.27 16.82 16.21 16.34 18.31 23.38 28.63 31.32 32.28 32.68 32.63 32.20 31.31 29.94 28.28 27.11 27.15 28.14 30.00 33.88 39.63 44.58 47.16 48.36 49.16 49.73 50.07 50.63 51.28 51.94 52.30 52.58 52.61 52.61 52.05 0 0 0 0
70 "CA-F" 0 0 0 35.7403 35.6983 30.4727 17.59 21.38 23.48 23.75 22.98 21.94 21.31 21.98 24.50 27.69 30.02 31.43 32.35 33.26 34.24 35.02 34.68 33.26 32.17 32.45 33.13 32.54 33.13 37.81 42.96 45.95 47.42 48.12 48.50 48.77 48.88 49.07 49.23 49.65 49.71 49.64 49.39 48.98 48.14 0 0 0 0
71 "CA-F" 0 0 0 40.0273 40.9498 35.3216 22.37 24.40 25.94 26.53 26.19 25.25 24.52 24.90 27.75 32.14 35.37 36.91 37.77 38.63 39.43 39.93 39.95 39.18 38.29 38.05 38.38 38.68 39.80 43.16 46.94 49.34 50.46 50.97 51.21 51.51 51.58 51.63 51.85 51.91 52.02 51.89 51.79 51.59 51.03 0 0 0 0
72 "CA-F" 0 0 0 40.6305 40.8498 36.1205 25.20 27.41 28.51 27.96 26.47 24.95 24.27 25.24 28.91 32.94 35.88 37.64 38.82 39.97 40.92 41.51 40.59 38.20 36.46 36.94 37.81 36.60 37.20 43.25 49.35 52.10 53.16 53.62 53.80 53.89 53.84 53.83 53.75 53.78 53.64 53.40 53.08 52.79 52.16 0 0 0 0
73 "CA-F" 0 0 0 29.7445 27.3833 20.0260 11.12 12.79 14.04 14.66 14.88 14.56 14.28 14.79 16.31 17.97 19.36 20.33 21.25 22.18 23.20 23.96 23.72 22.72 22.18 22.93 24.07 24.08 25.30 31.50 38.63 42.74 44.76 45.89 46.70 47.42 47.82 48.35 48.70 49.31 49.54 49.71 49.73 49.66 49.28 0 0 0 0
74 "CA-F" 0 0 0 30.5782 28.3138 21.0797 12.79 14.10 15.04 15.41 15.24 14.75 14.31 14.80 16.58 18.84 20.65 22.02 22.98 24.14 25.16 25.71 25.17 23.83 23.05 23.48 24.32 24.40 25.89 32.05 39.12 43.61 46.20 47.66 48.57 49.33 49.86 50.61 51.33 52.07 52.54 52.88 52.98 52.94 52.54 0 0 0 0
75 "CA-F" 0 0 0 30.2636 29.0400 20.9052 9.39 11.35 12.90 13.86 14.46 14.65 14.76 15.60 17.27 18.89 20.17 21.08 21.91 22.87 23.92 24.83 25.24 25.10 25.12 25.94 27.06 27.69 29.09 33.17 37.76 40.68 42.30 43.40 44.13 44.83 45.30 45.84 46.26 46.88 47.26 47.57 47.65 47.67 47.38 0 0 0 0
76 "CA-F" 0 0 0 32.9311 31.4510 25.1269 14.18 16.18 17.60 18.22 18.48 18.33 18.24 18.93 20.88 22.70 24.31 25.40 26.22 27.06 28.01 28.59 28.39 27.52 27.07 27.63 28.45 28.37 29.63 35.10 41.27 44.87 46.53 47.32 47.81 48.21 48.35 48.65 48.67 49.05 49.08 49.07 48.93 48.74 48.26 0 0 0 0
77 "CA-F" 0 0 0 31.2074 28.9461 21.5994 11.41 12.87 14.04 14.70 14.91 14.74 14.57 15.27 17.23 19.33 21.11 22.42 23.52 24.59 25.68 26.28 25.79 24.57 23.82 24.31 25.17 25.00 25.87 31.74 39.56 44.72 47.43 49.02 50.05 50.78 51.36 51.94 52.46 53.20 53.51 53.86 53.90 53.86 53.47 0 0 0 0
78 "CA-F" 0 0 0 32.2577 31.7838 25.6028 12.26 13.45 14.69 15.51 15.74 15.51 15.31 15.74 18.22 22.49 26.50 28.80 30.05 30.89 31.47 31.46 30.70 29.13 27.71 27.36 27.77 28.08 29.40 33.84 39.31 43.19 45.28 46.32 46.96 47.56 47.83 48.22 48.55 49.07 49.25 49.33 49.31 49.10 48.54 0 0 0 0
